X:315
T:Steam Packet, The
R:reel
Z:Transcribed by Dave Marshall
M:C|
K:G
| A~G3 AGFG | D~G3 ABcB | A~G3 AGDE | ~=F3G ABcB |
A~G3 AGFG | D~G3 A3B | A~G3 AGDE | ~=F3G ABcA |
d~g3 agfg | d~g3 fdcA | d~g3 agfe | d2eg fdcA |
d~g3 agfg | abag ~f3g | afge fdec | d2eg fdcB |
